Newaita-dark/devices/24/media-memory-sd.svg

<svg height="24pt" viewBox="0 0 24 24" width="24pt" xmlns="http://www.w3.org/2000/svg" xmlns:xlink="http://www.w3.org/1999/xlink"><linearGradient id="a" gradientUnits="userSpaceOnUse" x1="11.907391" x2="11.907391" y1="20.98665325" y2="21.97893615627"><stop offset="0" stop-opacity=".27451"/><stop offset="1" stop-opacity="0"/></linearGradient><linearGradient id="b"><stop offset="0" stop-opacity=".313725"/><stop offset=".222222" stop-opacity=".27451"/><stop offset="1" stop-opacity="0"/></linearGradient><radialGradient id="c" cx="450.90894" cy="189.57936" gradientTransform="matrix(.00000013 -.0585994 -.105479 -.00000008 37.857633 47.657703)" gradientUnits="userSpaceOnUse" r="21.166656" xlink:href="#b"/><radialGradient id="d" cx="450.90894" cy="189.57936" gradientTransform="matrix(-.00000013 .0585994 .105479 .00000008 -14.042859 -5.684407)" gradientUnits="userSpaceOnUse" r="21.166656" xlink:href="#b"/><radialGradient id="e" cx="450.90894" cy="189.57936" gradientTransform="matrix(-.00000013 -.0585994 .105479 -.00000008 -14.042859 47.657703)" gradientUnits="userSpaceOnUse" r="21.166656" xlink:href="#b"/><radialGradient id="f" cx="450.90894" cy="189.57936" gradientTransform="matrix(.00000013 .0585994 -.105479 .00000008 37.857631 -5.684407)" gradientUnits="userSpaceOnUse" r="21.166656" xlink:href="#b"/><linearGradient id="g" gradientUnits="userSpaceOnUse" x1="11.907393" x2="11.907393" y1="23.01001606253" y2=".1875125"><stop offset="0" stop-color="#424242"/><stop offset="1" stop-color="#616161"/></linearGradient><linearGradient id="h" gradientUnits="userSpaceOnUse" x1="11.907393" x2="11.907393" y1="21.02545025" y2="2.17207784373"><stop offset="0" stop-color="#26a69a"/><stop offset="1" stop-color="#4db6ac"/></linearGradient><linearGradient id="i" gradientUnits="userSpaceOnUse" x1="11.90736" x2="11.90736" y1="21.0253985937" y2="3.66049735335"><stop offset="0" stop-color="#f44336"/><stop offset="1" stop-color="#ef5350"/></linearGradient><path d="m5.707031 21.003906h12.402344v1.015625h-12.402344zm0 0" fill="url(#a)"/><path d="m18.109375 20.988281h1.984375v-.992187h-1.984375zm0 0" fill="url(#c)"/><path d="m5.707031 20.988281h-1.984375v.992188h1.984375zm0 0" fill="url(#d)"/><path d="m5.707031 20.988281h-1.984375v-.992187h1.984375zm0 0" fill="url(#e)"/><path d="m18.109375 20.988281h1.984375v.992188h-1.984375zm0 0" fill="url(#f)"/><path d="m8.929688 2.175781c-.261719 0-.511719.105469-.699219.289063l-3.96875 3.96875c-.183594.1875-.289063.4375-.289063.699218v.496094h.492188c.273437 0 .496094.222656.496094.496094v1.488281c0 .277344-.222657.496094-.496094.496094h-.492188v9.921875c0 .546875.445313.988281.988282.988281h13.890624c.546876 0 .988282-.441406.988282-.988281v-6.945312h-.492188c-.273437 0-.496094-.21875-.496094-.496094v-5.457032c0-.273437.222657-.496093.496094-.496093h.492188v-3.472657c0-.546874-.441406-.988281-.988282-.988281zm0 0" fill="url(#g)"/><path d="m3.972656 19.699219v.332031c0 .546875.445313.988281.988282.988281h13.890624c.546876 0 .988282-.441406.988282-.988281v-.332031c0 .542969-.441406.988281-.988282.988281h-13.890624c-.542969 0-.988282-.445312-.988282-.988281zm0 0" fill-opacity=".235294"/><path d="m9.921875 3.664062c-.261719 0-.511719.105469-.699219.289063l-2.976562 2.976563c-.183594.1875-.289063.4375-.289063.699218v10.914063c0 .546875.445313.988281.988281.988281h9.921876c.546874 0 .988281-.441406.988281-.988281v-13.890625c0-.546875-.441407-.988282-.988281-.988282zm0 0" fill="url(#h)"/><path d="m9.921875 3.664062c-.261719 0-.511719.105469-.699219.289063l-2.976562 2.976563c-.183594.1875-.289063.4375-.289063.699218v1.488282h11.898438v-4.464844c0-.546875-.441407-.988282-.988281-.988282zm0 0" fill="url(#i)"/><path d="m211.646455-136.840797c-5.5828 0-10.915624 2.249785-14.915242 6.166078l-63.493937 63.493936c-3.916292 3.999618-6.166077 9.332442-6.166077 14.915243v232.811101c0 11.665552 9.499093 21.08132 21.08132 21.08132h211.646455c11.665553 0 21.08132-9.415768 21.08132-21.08132v-296.305038c0-11.665553-9.415767-21.08132-21.08132-21.08132zm0 0" fill="none" stroke="#212121" stroke-linecap="round" stroke-linejoin="round" stroke-width="3" transform="matrix(.0468795 0 0 .0468795 0 10.079087)"/><path d="m8.929688 2.175781c-.261719 0-.511719.105469-.699219.289063l-3.96875 3.96875c-.183594.1875-.289063.4375-.289063.699218v.25c0-.261718.105469-.515624.289063-.699218l3.96875-3.96875c.1875-.1875.4375-.289063.699219-.289063h9.921874c.546876 0 .988282.441407.988282.988281v-.25c0-.546874-.441406-.988281-.988282-.988281zm-3.96875 7.4375c0 .277344-.222657.496094-.496094.496094h-.492188v.25h.492188c.273437 0 .496094-.222656.496094-.496094zm13.890624 2.976563v.25c0 .273437.222657.496094.496094.496094h.492188v-.25h-.492188c-.273437 0-.496094-.21875-.496094-.496094zm0 0" fill="#fff" fill-opacity=".313725"/><g fill="none" stroke="#212121" stroke-linecap="round" stroke-linejoin="round" stroke-width="11.338583" transform="scale(.0124035)"><path d="m719.931259 175.416322c-21.100347 0-41.255903 8.503125-56.37257 23.304861l-319.969449 319.969449c-14.801736 15.116666-23.304861 35.272222-23.304861 56.37257v39.996181h39.681251c22.045139 0 39.996181 17.951042 39.996181 39.996181v119.988543c0 22.36007-17.951042 39.996181-39.996181 39.996181h-39.681251v799.923621c0 44.090279 35.902084 79.677432 79.677432 79.677432h1119.893069c44.090279 0 79.677432-35.587153 79.677432-79.677432v-559.946535h-39.681251c-22.045139 0-39.996181-17.636111-39.996181-39.996181v-439.957991c0-22.045139 17.951042-39.996181 39.996181-39.996181h39.681251v-279.973268c0-44.090278-35.587153-79.677431-79.677432-79.677431zm0 0"/><path d="m799.923621 295.404865c-21.100347 0-41.255903 8.503125-56.37257 23.304861l-239.977086 239.977087c-14.801737 15.116666-23.304862 35.272222-23.304862 56.37257v119.988543h959.278485v-359.96563c0-44.090278-35.587154-79.677431-79.677432-79.677431zm0 0"/></g></svg>

<?xml version="1.0" encoding="UTF-8"?>
<svg xmlns="http://www.w3.org/2000/svg" xmlns:xlink="http://www.w3.org/1999/xlink" width="24pt" height="24pt" viewBox="0 0 24 24" version="1.1">
<defs>
<linearGradient id="linear0" gradientUnits="userSpaceOnUse" x1="254" y1="233.5" x2="254" y2="254.66667" gradientTransform="matrix(0.0468795,0,0,0.0468795,-0.00000187518,10.04029)">
<stop offset="0" style="stop-color:rgb(0%,0%,0%);stop-opacity:0.27451;"/>
<stop offset="1" style="stop-color:rgb(0%,0%,0%);stop-opacity:0;"/>
</linearGradient>
<radialGradient id="radial0" gradientUnits="userSpaceOnUse" cx="450.90894" cy="189.57936" fx="450.90894" fy="189.57936" r="21.166656" gradientTransform="matrix(0.000000130628,-0.0585994,-0.105479,-0.0000000761539,37.857633,47.657703)">
<stop offset="0" style="stop-color:rgb(0%,0%,0%);stop-opacity:0.313725;"/>
<stop offset="0.222222" style="stop-color:rgb(0%,0%,0%);stop-opacity:0.27451;"/>
<stop offset="1" style="stop-color:rgb(0%,0%,0%);stop-opacity:0;"/>
</radialGradient>
<radialGradient id="radial1" gradientUnits="userSpaceOnUse" cx="450.90894" cy="189.57936" fx="450.90894" fy="189.57936" r="21.166656" gradientTransform="matrix(-0.000000130628,0.0585994,0.105479,0.0000000761539,-14.042859,-5.684407)">
<stop offset="0" style="stop-color:rgb(0%,0%,0%);stop-opacity:0.313725;"/>
<stop offset="0.222222" style="stop-color:rgb(0%,0%,0%);stop-opacity:0.27451;"/>
<stop offset="1" style="stop-color:rgb(0%,0%,0%);stop-opacity:0;"/>
</radialGradient>
<radialGradient id="radial2" gradientUnits="userSpaceOnUse" cx="450.90894" cy="189.57936" fx="450.90894" fy="189.57936" r="21.166656" gradientTransform="matrix(-0.000000130628,-0.0585994,0.105479,-0.0000000761539,-14.042859,47.657703)">
<stop offset="0" style="stop-color:rgb(0%,0%,0%);stop-opacity:0.313725;"/>
<stop offset="0.222222" style="stop-color:rgb(0%,0%,0%);stop-opacity:0.27451;"/>
<stop offset="1" style="stop-color:rgb(0%,0%,0%);stop-opacity:0;"/>
</radialGradient>
<radialGradient id="radial3" gradientUnits="userSpaceOnUse" cx="450.90894" cy="189.57936" fx="450.90894" fy="189.57936" r="21.166656" gradientTransform="matrix(0.000000130628,0.0585994,-0.105479,0.0000000761539,37.857631,-5.684407)">
<stop offset="0" style="stop-color:rgb(0%,0%,0%);stop-opacity:0.313725;"/>
<stop offset="0.222222" style="stop-color:rgb(0%,0%,0%);stop-opacity:0.27451;"/>
<stop offset="1" style="stop-color:rgb(0%,0%,0%);stop-opacity:0;"/>
</radialGradient>
<linearGradient id="linear1" gradientUnits="userSpaceOnUse" x1="254" y1="275.83334" x2="254" y2="-211" gradientTransform="matrix(0.0468795,0,0,0.0468795,0,10.079087)">
<stop offset="0" style="stop-color:rgb(25.882353%,25.882353%,25.882353%);stop-opacity:1;"/>
<stop offset="1" style="stop-color:rgb(38.039216%,38.039216%,38.039216%);stop-opacity:1;"/>
</linearGradient>
<linearGradient id="linear2" gradientUnits="userSpaceOnUse" x1="254" y1="233.5" x2="254" y2="-168.66667" gradientTransform="matrix(0.0468795,0,0,0.0468795,0,10.079087)">
<stop offset="0" style="stop-color:rgb(14.901961%,65.098039%,60.392157%);stop-opacity:1;"/>
<stop offset="1" style="stop-color:rgb(30.196078%,71.372549%,67.45098%);stop-opacity:1;"/>
</linearGradient>
<linearGradient id="linear3" gradientUnits="userSpaceOnUse" x1="960" y1="1695.1182" x2="960" y2="295.1181" gradientTransform="matrix(0.0124035,0,0,0.0124035,0,0)">
<stop offset="0" style="stop-color:rgb(95.686275%,26.27451%,21.176471%);stop-opacity:1;"/>
<stop offset="1" style="stop-color:rgb(93.72549%,32.54902%,31.372549%);stop-opacity:1;"/>
</linearGradient>
</defs>
<g id="surface1">
<path style=" stroke:none;fill-rule:nonzero;fill:url(#linear0);" d="M 5.707031 21.003906 L 18.109375 21.003906 L 18.109375 22.019531 L 5.707031 22.019531 Z M 5.707031 21.003906 "/>
<path style=" stroke:none;fill-rule:nonzero;fill:url(#radial0);" d="M 18.109375 20.988281 L 20.09375 20.988281 L 20.09375 19.996094 L 18.109375 19.996094 Z M 18.109375 20.988281 "/>
<path style=" stroke:none;fill-rule:nonzero;fill:url(#radial1);" d="M 5.707031 20.988281 L 3.722656 20.988281 L 3.722656 21.980469 L 5.707031 21.980469 Z M 5.707031 20.988281 "/>
<path style=" stroke:none;fill-rule:nonzero;fill:url(#radial2);" d="M 5.707031 20.988281 L 3.722656 20.988281 L 3.722656 19.996094 L 5.707031 19.996094 Z M 5.707031 20.988281 "/>
<path style=" stroke:none;fill-rule:nonzero;fill:url(#radial3);" d="M 18.109375 20.988281 L 20.09375 20.988281 L 20.09375 21.980469 L 18.109375 21.980469 Z M 18.109375 20.988281 "/>
<path style=" stroke:none;fill-rule:nonzero;fill:url(#linear1);" d="M 8.929688 2.175781 C 8.667969 2.175781 8.417969 2.28125 8.230469 2.464844 L 4.261719 6.433594 C 4.078125 6.621094 3.972656 6.871094 3.972656 7.132812 L 3.972656 7.628906 L 4.464844 7.628906 C 4.738281 7.628906 4.960938 7.851562 4.960938 8.125 L 4.960938 9.613281 C 4.960938 9.890625 4.738281 10.109375 4.464844 10.109375 L 3.972656 10.109375 L 3.972656 20.03125 C 3.972656 20.578125 4.417969 21.019531 4.960938 21.019531 L 18.851562 21.019531 C 19.398438 21.019531 19.839844 20.578125 19.839844 20.03125 L 19.839844 13.085938 L 19.347656 13.085938 C 19.074219 13.085938 18.851562 12.867188 18.851562 12.589844 L 18.851562 7.132812 C 18.851562 6.859375 19.074219 6.636719 19.347656 6.636719 L 19.839844 6.636719 L 19.839844 3.164062 C 19.839844 2.617188 19.398438 2.175781 18.851562 2.175781 Z M 8.929688 2.175781 "/>
<path style=" stroke:none;fill-rule:nonzero;fill:rgb(0%,0%,0%);fill-opacity:0.235294;" d="M 3.972656 19.699219 L 3.972656 20.03125 C 3.972656 20.578125 4.417969 21.019531 4.960938 21.019531 L 18.851562 21.019531 C 19.398438 21.019531 19.839844 20.578125 19.839844 20.03125 L 19.839844 19.699219 C 19.839844 20.242188 19.398438 20.6875 18.851562 20.6875 L 4.960938 20.6875 C 4.417969 20.6875 3.972656 20.242188 3.972656 19.699219 Z M 3.972656 19.699219 "/>
<path style=" stroke:none;fill-rule:nonzero;fill:url(#linear2);" d="M 9.921875 3.664062 C 9.660156 3.664062 9.410156 3.769531 9.222656 3.953125 L 6.246094 6.929688 C 6.0625 7.117188 5.957031 7.367188 5.957031 7.628906 L 5.957031 18.542969 C 5.957031 19.089844 6.402344 19.53125 6.945312 19.53125 L 16.867188 19.53125 C 17.414062 19.53125 17.855469 19.089844 17.855469 18.542969 L 17.855469 4.652344 C 17.855469 4.105469 17.414062 3.664062 16.867188 3.664062 Z M 9.921875 3.664062 "/>
<path style=" stroke:none;fill-rule:nonzero;fill:url(#linear3);" d="M 9.921875 3.664062 C 9.660156 3.664062 9.410156 3.769531 9.222656 3.953125 L 6.246094 6.929688 C 6.0625 7.117188 5.957031 7.367188 5.957031 7.628906 L 5.957031 9.117188 L 17.855469 9.117188 L 17.855469 4.652344 C 17.855469 4.105469 17.414062 3.664062 16.867188 3.664062 Z M 9.921875 3.664062 "/>
<path style="fill:none;stroke-width:3;stroke-linecap:round;stroke-linejoin:round;stroke:rgb(12.941176%,12.941176%,12.941176%);stroke-opacity:1;stroke-miterlimit:4;" d="M 211.646455 -136.840797 C 206.063655 -136.840797 200.730831 -134.591012 196.731213 -130.674719 L 133.237276 -67.180783 C 129.320984 -63.181165 127.071199 -57.848341 127.071199 -52.26554 L 127.071199 180.545561 C 127.071199 192.211113 136.570292 201.626881 148.152519 201.626881 L 359.798974 201.626881 C 371.464527 201.626881 380.880294 192.211113 380.880294 180.545561 L 380.880294 -115.759477 C 380.880294 -127.42503 371.464527 -136.840797 359.798974 -136.840797 Z M 211.646455 -136.840797 " transform="matrix(0.0468795,0,0,0.0468795,0,10.079087)"/>
<path style=" stroke:none;fill-rule:nonzero;fill:rgb(100%,100%,100%);fill-opacity:0.313725;" d="M 8.929688 2.175781 C 8.667969 2.175781 8.417969 2.28125 8.230469 2.464844 L 4.261719 6.433594 C 4.078125 6.621094 3.972656 6.871094 3.972656 7.132812 L 3.972656 7.382812 C 3.972656 7.121094 4.078125 6.867188 4.261719 6.683594 L 8.230469 2.714844 C 8.417969 2.527344 8.667969 2.425781 8.929688 2.425781 L 18.851562 2.425781 C 19.398438 2.425781 19.839844 2.867188 19.839844 3.414062 L 19.839844 3.164062 C 19.839844 2.617188 19.398438 2.175781 18.851562 2.175781 Z M 4.960938 9.613281 C 4.960938 9.890625 4.738281 10.109375 4.464844 10.109375 L 3.972656 10.109375 L 3.972656 10.359375 L 4.464844 10.359375 C 4.738281 10.359375 4.960938 10.136719 4.960938 9.863281 Z M 18.851562 12.589844 L 18.851562 12.839844 C 18.851562 13.113281 19.074219 13.335938 19.347656 13.335938 L 19.839844 13.335938 L 19.839844 13.085938 L 19.347656 13.085938 C 19.074219 13.085938 18.851562 12.867188 18.851562 12.589844 Z M 18.851562 12.589844 "/>
<path style="fill:none;stroke-width:11.338583;stroke-linecap:round;stroke-linejoin:round;stroke:rgb(12.941176%,12.941176%,12.941176%);stroke-opacity:1;stroke-miterlimit:4;" d="M 719.931259 175.416322 C 698.830912 175.416322 678.675356 183.919447 663.558689 198.721183 L 343.58924 518.690632 C 328.787504 533.807298 320.284379 553.962854 320.284379 575.063202 L 320.284379 615.059383 L 359.96563 615.059383 C 382.010769 615.059383 399.961811 633.010425 399.961811 655.055564 L 399.961811 775.044107 C 399.961811 797.404177 382.010769 815.040288 359.96563 815.040288 L 320.284379 815.040288 L 320.284379 1614.963909 C 320.284379 1659.054188 356.186463 1694.641341 399.961811 1694.641341 L 1519.85488 1694.641341 C 1563.945159 1694.641341 1599.532312 1659.054188 1599.532312 1614.963909 L 1599.532312 1055.017374 L 1559.851061 1055.017374 C 1537.805922 1055.017374 1519.85488 1037.381263 1519.85488 1015.021193 L 1519.85488 575.063202 C 1519.85488 553.018063 1537.805922 535.067021 1559.851061 535.067021 L 1599.532312 535.067021 L 1599.532312 255.093753 C 1599.532312 211.003475 1563.945159 175.416322 1519.85488 175.416322 Z M 719.931259 175.416322 " transform="matrix(0.0124035,0,0,0.0124035,0,0)"/>
<path style="fill:none;stroke-width:11.338583;stroke-linecap:round;stroke-linejoin:round;stroke:rgb(12.941176%,12.941176%,12.941176%);stroke-opacity:1;stroke-miterlimit:4;" d="M 799.923621 295.404865 C 778.823274 295.404865 758.667718 303.90799 743.551051 318.709726 L 503.573965 558.686813 C 488.772228 573.803479 480.269103 593.959035 480.269103 615.059383 L 480.269103 735.047926 L 1439.547588 735.047926 L 1439.547588 375.082296 C 1439.547588 330.992018 1403.960434 295.404865 1359.870156 295.404865 Z M 799.923621 295.404865 " transform="matrix(0.0124035,0,0,0.0124035,0,0)"/>
</g>
</svg>
